X:333
T: Chang beishan
N: C1833
O: China, Ningxia Xiji
S: I, 164]
N: Han, Hui
R: Xiaodiao. Laodong]
M: 2/4
L: 1/16
K: Eb
f2f2f2ec | f2ecBAF2 | e2c2B2AF | A2cBBAF2 | F8 |
c8 | e2c2BAF2 | A2cBBAF2 | F8

